X: 33193
T: Project, The
R: waltz
M: 3/4
K: Emajor
fe|:dB (3BBB ef|dB (3BBB ec|dB (3BBB ef|=de fd Ac|
dB (3BBB ef|dB (3BBB ec|dB (3BBB ef|1 =de fd fe:|2 =dc B=A =GF||
[K: Gmaj]|:G2 GB FB|EE EG FG|AD AB AG|FF FB ^DF|
G2 GB FB|EE EG FG|AD AB AG|1 FA dG AA:|2 FA dB (3^d^d^d||
[K: Emaj]|:eB (3BBB eB|dB (3BBB dB|=dA (3AAA de|fB (3BBB =gf|
eB (3BBB eB|dB (3BBB dB|=dA (3AAA de|1 fB (3BBB f=g:|2|fB (3BBB fe||

